X:794
T:Petronella
R:Country Dance
S:Maire/ead ni/ Mhaonaigh
N:also played in key of G in octaves
Z:transcribed by Paul de Grae
M:4/4
L:1/8
K:D
F2 AF E2 FE|D2 D2 D2 FA|d2 cd e2 d2|cdec ABAG|
F2 AF E2 FE|D2 D2 D2 FA|d2 cd e2 de|1f2 d2 d2 A2:|2f2 d2 d2 B2|
|:Adfd Adfd|g2 gf edcB|Acec Acec|f2 fe dcdB|
Adfd Adfd|g2 gf edcB|Acec Aceg|f2 d2 d4:|

